build/assets/images/svg/icons/lk/basket/again.svg

<svg width="20" height="20" viewBox="0 0 20 20" fill="none" xmlns="http://www.w3.org/2000/svg">
<path d="M14.1667 3.33333C14.1667 2.8731 14.5398 2.5 15 2.5C15.4602 2.5 15.8333 2.8731 15.8333 3.33333V6C15.8333 6.46024 15.4602 6.83333 15 6.83333H12.407C11.9468 6.83333 11.5737 6.46024 11.5737 6C11.5737 5.53976 11.9468 5.16667 12.407 5.16667H12.9779C12.0734 4.53389 10.9841 4.16667 9.81455 4.16667C6.71732 4.16667 4.16667 6.75602 4.16667 10C4.16667 10.4602 3.79357 10.8333 3.33333 10.8333C2.8731 10.8333 2.5 10.4602 2.5 10C2.5 5.88018 5.75283 2.5 9.81455 2.5C11.4477 2.5 12.9527 3.04877 14.1667 3.97156V3.33333Z" fill="#70798E"/>
<path d="M5.83333 16.6667C5.83333 17.1269 5.46024 17.5 5 17.5C4.53976 17.5 4.16667 17.1269 4.16667 16.6667V14C4.16667 13.5398 4.53976 13.1667 5 13.1667H7.59296C8.0532 13.1667 8.42629 13.5398 8.42629 14C8.42629 14.4602 8.0532 14.8333 7.59296 14.8333H7.02212C7.92658 15.4661 9.01586 15.8333 10.1854 15.8333C13.2827 15.8333 15.8333 13.244 15.8333 10C15.8333 9.53976 16.2064 9.16667 16.6667 9.16667C17.1269 9.16667 17.5 9.53976 17.5 10C17.5 14.1198 14.2472 17.5 10.1854 17.5C8.55231 17.5 7.04728 16.9512 5.83333 16.0284V16.6667Z" fill="#70798E"/>
</svg>

<svg width="20" height="20" fill="none" xmlns="http://www.w3.org/2000/svg"><path d="M14.167 3.333a.833.833 0 011.666 0V6c0 .46-.373.833-.833.833h-2.593a.833.833 0 010-1.666h.57a5.497 5.497 0 00-3.162-1c-3.098 0-5.648 2.589-5.648 5.833A.833.833 0 012.5 10c0-4.12 3.253-7.5 7.315-7.5 1.633 0 3.138.549 4.352 1.472v-.639zM5.833 16.667a.833.833 0 01-1.666 0V14c0-.46.373-.833.833-.833h2.593a.833.833 0 110 1.666h-.57c.904.633 1.993 1 3.162 1 3.098 0 5.648-2.589 5.648-5.833a.833.833 0 011.667 0c0 4.12-3.253 7.5-7.315 7.5a7.164 7.164 0 01-4.352-1.472v.639z" fill="#70798E"/></svg>
